svg/logo/discord_fill.svg

<?xml version="1.0" encoding="UTF-8"?>
<svg width="24px" height="24px" viewBox="0 0 24 24" version="1.1" xmlns="http://www.w3.org/2000/svg" xmlns:xlink="http://www.w3.org/1999/xlink">
    <title>discord_fill</title>
    <g id="页面-1" stroke="none" stroke-width="1" fill="none" fill-rule="evenodd">
        <g id="Logo" transform="translate(-480.000000, -144.000000)">
            <g id="discord_fill" transform="translate(480.000000, 144.000000)">
                 <path d="M24,0 L24,24 L0,24 L0,0 L24,0 Z M12.5934901,23.257841 L12.5819402,23.2595131 L12.5108777,23.2950439 L12.4918791,23.2987469 L12.4918791,23.2987469 L12.4767152,23.2950439 L12.4056548,23.2595131 C12.3958229,23.2563662 12.3870493,23.2590235 12.3821421,23.2649074 L12.3780323,23.275831 L12.360941,23.7031097 L12.3658947,23.7234994 L12.3769048,23.7357139 L12.4804777,23.8096931 L12.4953491,23.8136134 L12.4953491,23.8136134 L12.5071152,23.8096931 L12.6106902,23.7357139 L12.6232938,23.7196733 L12.6232938,23.7196733 L12.6266527,23.7031097 L12.609561,23.275831 C12.6075724,23.2657013 12.6010112,23.2592993 12.5934901,23.257841 L12.5934901,23.257841 Z M12.8583906,23.1452862 L12.8445485,23.1473072 L12.6598443,23.2396597 L12.6498822,23.2499052 L12.6498822,23.2499052 L12.6471943,23.2611114 L12.6650943,23.6906389 L12.6699349,23.7034178 L12.6699349,23.7034178 L12.678386,23.7104931 L12.8793402,23.8032389 C12.8914285,23.8068999 12.9022333,23.8029875 12.9078286,23.7952264 L12.9118235,23.7811639 L12.8776777,23.1665331 C12.8752882,23.1545897 12.8674102,23.1470016 12.8583906,23.1452862 L12.8583906,23.1452862 Z M12.1430473,23.1473072 C12.1332178,23.1423925 12.1221763,23.1452606 12.1156365,23.1525954 L12.1099173,23.1665331 L12.0757714,23.7811639 C12.0751323,23.7926639 12.0828099,23.8018602 12.0926481,23.8045676 L12.108256,23.8032389 L12.3092106,23.7104931 L12.3186497,23.7024347 L12.3186497,23.7024347 L12.3225043,23.6906389 L12.340401,23.2611114 L12.337245,23.2485176 L12.337245,23.2485176 L12.3277531,23.2396597 L12.1430473,23.1473072 Z" id="MingCute" fill-rule="nonzero"></path>
                <path d="M15.0031,4 C15.74742,4 16.532444,4.2597504 17.2533144,4.5466496 L17.7803,4.76328 L17.7803,4.76328 C19.0402,5.29134 19.7484,6.39876 20.2975,7.61613 C21.1882,9.59078 21.8067,12.2238 22.0209,14.2256 C22.1227,15.1766 22.1483,16.1321 21.9647,16.7747 C21.76838,17.46166 21.0975,17.947788 20.4466008,18.3303128 L20.1251058,18.5133917 L20.1251058,18.5133917 L19.7907,18.6986 C19.61865,18.794725 19.442175,18.8900812 19.2660703,18.9830547 L18.7436625,19.2532125 L18.7436625,19.2532125 L18.0271553,19.610458 L18.0271553,19.610458 L17.4503,19.8944 L17.4503,19.8944 C16.9564,20.1414 16.3557,19.9412 16.1087,19.4472 C15.8617,18.9532 16.0619,18.3526 16.5559,18.1056 L17.3469,17.7158 L17.3469,17.7158 L16.7663,17.1071 C15.3765,17.6777 13.7389,18 12.0001,18 C10.2612,18 8.6236,17.6777 7.23378,17.1071 L6.65415,17.7148 L7.44727,18.1056 L7.44727,18.1056 C7.94124,18.3526 8.14147,18.9532 7.89448,19.4472 C7.64749,19.9412 7.04682,20.1414 6.55284,19.8944 L6.00922,19.6247 C5.60650667,19.4255667 5.20386444,19.2265222 4.80574963,19.0185 L3.87804989,18.5133917 L3.87804989,18.5133917 L3.55657432,18.3303128 C2.9057004,17.947788 2.234774,17.46166 2.03851,16.7747 C1.85493,16.1321 1.88051,15.1766 1.98227,14.2256 C2.19645,12.2238 2.81496,9.59078 3.70567,7.61613 C4.25479,6.39877 4.96296,5.29134 6.22289,4.76328 C7.05903,4.41284 8.07171,4 9.00004,4 C9.60303,4 10.0767,4.55523 9.98927,5.14727 C10.6366,5.05075 11.3099,5 12.0001,5 C12.6914,5 13.3657,5.05091 14.014,5.14774 C13.9263,4.55557 14.4,4 15.0031,4 Z M8.75006,10.5 C7.78356,10.5 7.00006,11.2835 7.00006,12.25 C7.00006,13.2165 7.78356,14 8.75006,14 C9.71656,14 10.5001,13.2165 10.5001,12.25 C10.5001,11.2835 9.71656,10.5 8.75006,10.5 Z M15.2501,10.5 C14.2836,10.5 13.5001,11.2835 13.5001,12.25 C13.5001,13.2165 14.2836,14 15.2501,14 C16.2166,14 17.0001,13.2165 17.0001,12.25 C17.0001,11.2835 16.2166,10.5 15.2501,10.5 Z" id="形状" fill="#09244B"></path>
            </g>
        </g>
    </g>
</svg>

<svg xmlns="http://www.w3.org/2000/svg" width="24" height="24"><g fill="none" fill-rule="evenodd"><path d="M24 0v24H0V0h24ZM12.593 23.258l-.011.002-.071.035-.02.004-.014-.004-.071-.035c-.01-.004-.019-.001-.024.005l-.004.01-.017.428.005.02.01.013.104.074.015.004.012-.004.104-.074.012-.016.004-.017-.017-.427c-.002-.01-.009-.017-.017-.018Zm.265-.113-.013.002-.185.093-.01.01-.003.011.018.43.005.012.008.007.201.093c.012.004.023 0 .029-.008l.004-.014-.034-.614c-.003-.012-.01-.02-.02-.022Zm-.715.002a.023.023 0 0 0-.027.006l-.006.014-.034.614c0 .012.007.02.017.024l.015-.002.201-.093.01-.008.004-.011.017-.43-.003-.012-.01-.01-.184-.092Z"/><path fill="#09244B" d="M15.003 4c.744 0 1.53.26 2.25.547l.527.216c1.26.528 1.968 1.636 2.517 2.853.891 1.975 1.51 4.608 1.724 6.61.102.95.127 1.906-.056 2.549-.197.687-.867 1.173-1.518 1.555l-.322.183-.334.186c-.172.096-.349.191-.525.284l-.522.27-.717.357-.577.284a1 1 0 1 1-.894-1.788l.79-.39-.58-.609c-1.39.57-3.027.893-4.766.893-1.739 0-3.376-.322-4.766-.893l-.58.608.793.39a1 1 0 1 1-.894 1.79l-.544-.27c-.402-.2-.805-.398-1.203-.607l-.928-.505-.321-.183c-.651-.382-1.322-.868-1.518-1.555-.184-.643-.158-1.598-.057-2.55.214-2.001.833-4.634 1.724-6.609.549-1.217 1.257-2.325 2.517-2.853C7.059 4.413 8.072 4 9 4c.603 0 1.077.555.99 1.147A13.65 13.65 0 0 1 12 5c.691 0 1.366.05 2.014.148A1.012 1.012 0 0 1 15.004 4ZM8.75 10.5a1.75 1.75 0 1 0 0 3.5 1.75 1.75 0 0 0 0-3.5Zm6.5 0a1.75 1.75 0 1 0 0 3.5 1.75 1.75 0 0 0 0-3.5Z"/></g></svg>
